X:0463
T:The Humours of Limerick.
M:6/8
L:1/8
Q:3/8=120
I: :: ::
Z:Jack Campin * www.campin.me.uk * 2009
K:G
e/f/|gdc BAG|gdc BAG|cde dgB|cAA A2
e/f/|gdc BAG|cde def|gfe dBg|dBG G2::
d/c/|BGB dBd|ece def|gfe dcB|cAA A2
e/f/|gdB cec|dfd eaf|gfe dBg|dBG G2:|
<end>
<start>
